paw-off-outline.svg

<svg fill="currentColor" viewBox="0 0 24 24"><path d="M22.83 8.25c-.27-.75-.78-1.29-1.44-1.57-1.17-.5-2.59-.08-3.69.98q.165-.435.3-.93c.25-1.35 0-2.7-.62-3.61-.43-.62-1.05-1.01-1.74-1.12-1.54-.22-3.07 1.08-3.71 3-.65-1.95-2.19-3.24-3.74-3-.69.12-1.31.53-1.74 1.16l-.03.06 1.49 1.49c.05-.17.09-.31.19-.42.12-.17.26-.29.4-.29.5-.09 1.38.69 1.66 2.1.07.34.08.65.06.9l1.66 1.68c.01-.03.03-.06.05-.1.04.11.11.2.16.31l1.34 1.34a2.3 2.3 0 0 0 .98.22c.72 0 1.42-.33 2.02-.88-.43 1.07-.47 2.16-.14 3.06.27.72.78 1.28 1.44 1.57.34.14.7.21 1.07.21 1.38 0 2.86-1.01 3.7-2.64.58-1.19.71-2.47.33-3.52M16 6.33c-.28 1.4-1.17 2.17-1.66 2.11-.06-.01-.22-.03-.4-.29-.25-.36-.44-1.08-.24-2.05.27-1.34 1.1-2.1 1.59-2.1h.07c.14 0 .27.11.39.27.32.46.43 1.27.25 2.06m4.7 4.54c-.58 1.13-1.62 1.73-2.17 1.49-.06-.02-.25-.1-.37-.43-.16-.5-.09-1.25.23-1.93.51-.96 1.35-1.53 1.94-1.53.1 0 .17.03.27.03.15.08.27.22.35.44.14.4.15 1.12-.25 1.93M1.11 3 4.8 6.69c-.74-.28-1.51-.3-2.2-.01-.66.29-1.17.85-1.43 1.59-.377 1.04-.251 2.31.33 3.5.84 1.63 2.32 2.64 3.71 2.64.36 0 .72-.07 1.06-.21.66-.29 1.17-.85 1.44-1.57.29-.84.29-1.86-.07-2.87.19.15.4.27.6.37l1.49 1.49c-.79.88-1.46 2.08-2.26 2.88-1.06 1.09-2.85 1.89-3.03 3.38-.13 1.08.56 2.38 1.56 2.87.35.18.72.25 1.1.25 1.51 0 3.2-1.13 4.79-1.13 1.61 0 3.29 1.1 4.82 1.1.37 0 .73-.06 1.08-.22.21-.1.44-.25.64-.43l2.41 2.41 1.27-1.27L2.39 1.73zm10.04 10.04L17 18.9c0 .01-.03.02-.04.03a.6.6 0 0 1-.25.04c-.43 0-1.08-.22-1.71-.43-.92-.31-1.97-.67-3.11-.67s-2.19.37-3.11.69c-.63.21-1.28.44-1.68.44-.13 0-.18 0-.22-.05-.22-.11-.48-.58-.45-.83.07-.23.8-.81 1.16-1.12.44-.32.91-.67 1.3-1.09.55-.55 1-1.18 1.44-1.79.22-.32.53-.74.82-1.08M5.6 10c.33.68.4 1.43.24 1.93-.13.33-.31.41-.37.43-.55.24-1.59-.36-2.17-1.49-.4-.81-.39-1.52-.25-1.93.08-.21.2-.36.35-.44.1 0 .17-.04.28-.04.58 0 1.42.57 1.92 1.54"/></svg>

<svg  viewBox="0 0 24 24" fill="currentColor"><path  d="M22.83 8.25C22.56 7.5 22.05 6.96 21.39 6.68C20.22 6.18 18.8 6.6 17.7 7.66C17.81 7.37 17.91 7.06 18 6.73C18.25 5.38 18 4.03 17.38 3.12C16.95 2.5 16.33 2.11 15.64 2C14.1 1.78 12.57 3.08 11.93 5C11.28 3.05 9.74 1.76 8.19 2C7.5 2.12 6.88 2.53 6.45 3.16C6.44 3.18 6.43 3.2 6.42 3.22L7.91 4.71C7.96 4.54 8 4.4 8.1 4.29C8.22 4.12 8.36 4 8.5 4C9 3.91 9.88 4.69 10.16 6.1C10.23 6.44 10.24 6.75 10.22 7L11.88 8.68C11.89 8.65 11.91 8.62 11.93 8.58C11.97 8.69 12.04 8.78 12.09 8.89L13.43 10.23C13.63 10.32 13.83 10.39 14.04 10.42C14.16 10.44 14.29 10.45 14.41 10.45C15.13 10.45 15.83 10.12 16.43 9.57C16 10.64 15.96 11.73 16.29 12.63C16.56 13.35 17.07 13.91 17.73 14.2C18.07 14.34 18.43 14.41 18.8 14.41C20.18 14.41 21.66 13.4 22.5 11.77C23.08 10.58 23.21 9.3 22.83 8.25M16 6.33C15.72 7.73 14.83 8.5 14.34 8.44C14.28 8.43 14.12 8.41 13.94 8.15C13.69 7.79 13.5 7.07 13.7 6.1C13.97 4.76 14.8 4 15.29 4C15.31 4 15.34 4 15.36 4C15.5 4 15.63 4.11 15.75 4.27C16.07 4.73 16.18 5.54 16 6.33M20.7 10.87C20.12 12 19.08 12.6 18.53 12.36C18.47 12.34 18.28 12.26 18.16 11.93C18 11.43 18.07 10.68 18.39 10C18.9 9.04 19.74 8.47 20.33 8.47C20.43 8.47 20.5 8.5 20.6 8.5H20.6C20.75 8.58 20.87 8.72 20.95 8.94C21.09 9.34 21.1 10.06 20.7 10.87M1.11 3L4.8 6.69C4.06 6.41 3.29 6.39 2.6 6.68C1.94 6.97 1.43 7.53 1.17 8.27C.793 9.31 .919 10.58 1.5 11.77C2.34 13.4 3.82 14.41 5.21 14.41C5.57 14.41 5.93 14.34 6.27 14.2C6.93 13.91 7.44 13.35 7.71 12.63C8 11.79 8 10.77 7.64 9.76C7.83 9.91 8.04 10.03 8.24 10.13L9.73 11.62C8.94 12.5 8.27 13.7 7.47 14.5C6.41 15.59 4.62 16.39 4.44 17.88C4.31 18.96 5 20.26 6 20.75C6.35 20.93 6.72 21 7.1 21C8.61 21 10.3 19.87 11.89 19.87C13.5 19.87 15.18 20.97 16.71 20.97C17.08 20.97 17.44 20.91 17.79 20.75C18 20.65 18.23 20.5 18.43 20.32L20.84 22.73L22.11 21.46L2.39 1.73L1.11 3M11.15 13.04L17 18.9C17 18.91 16.97 18.92 16.96 18.93C16.92 18.95 16.85 18.97 16.71 18.97C16.28 18.97 15.63 18.75 15 18.54C14.08 18.23 13.03 17.87 11.89 17.87C10.75 17.87 9.7 18.24 8.78 18.56C8.15 18.77 7.5 19 7.1 19C6.97 19 6.92 19 6.88 18.95C6.66 18.84 6.4 18.37 6.43 18.12C6.5 17.89 7.23 17.31 7.59 17C8.03 16.68 8.5 16.33 8.89 15.91C9.44 15.36 9.89 14.73 10.33 14.12C10.55 13.8 10.86 13.38 11.15 13.04M5.6 10C5.93 10.68 6 11.43 5.84 11.93C5.71 12.26 5.53 12.34 5.47 12.36C4.92 12.6 3.88 12 3.3 10.87C2.9 10.06 2.91 9.35 3.05 8.94C3.13 8.73 3.25 8.58 3.4 8.5C3.5 8.5 3.57 8.46 3.68 8.46C4.26 8.46 5.1 9.03 5.6 10Z"/></svg>
